icons/svg/reactions_16.svg

<?xml version="1.0" encoding="UTF-8"?>
<svg width="16px" height="16px" viewBox="0 0 16 16" version="1.1" xmlns="http://www.w3.org/2000/svg" xmlns:xlink="http://www.w3.org/1999/xlink">
    <!-- Generator: Sketch 57.1 (83088) - https://sketch.com -->
    <title>reactions_16</title>
    <desc>Created with Sketch.</desc>
    <g id="Icons-Webex" stroke="none" stroke-width="1" fill="none" fill-rule="evenodd">
        <g id="chat/reactions_16" fill="#171B1F">
            <path d="M8,-0.0003 C9.103,-0.0003 10.17,0.2207 11.174,0.6547 C11.428,0.7637 11.544,1.0577 11.435,1.3117 C11.325,1.5647 11.032,1.6817 10.777,1.5727 C9.899,1.1927 8.965,0.9997 8,0.9997 C4.14,0.9997 1,4.1397 1,7.9997 C1,11.8597 4.14,14.9997 8,14.9997 C11.86,14.9997 15,11.8597 15,7.9997 C15,7.6687 14.977,7.3377 14.931,7.0147 C14.893,6.7417 15.083,6.4887 15.356,6.4497 C15.627,6.4107 15.882,6.6007 15.921,6.8747 C15.974,7.2427 16,7.6217 16,7.9997 C16,12.4107 12.411,15.9997 8,15.9997 C3.589,15.9997 0,12.4107 0,7.9997 C0,3.5887 3.589,-0.0003 8,-0.0003 Z M11.8293,10.3351 C12.0503,10.5011 12.0943,10.8151 11.9293,11.0361 C10.9913,12.2841 9.5593,13.0001 7.9993,13.0001 C6.4403,13.0001 5.0083,12.2841 4.0703,11.0361 C3.9043,10.8151 3.9493,10.5021 4.1703,10.3361 C4.3913,10.1711 4.7033,10.2151 4.8703,10.4351 C5.6173,11.4301 6.7583,12.0001 7.9993,12.0001 C9.2413,12.0001 10.3823,11.4301 11.1293,10.4351 C11.2943,10.2151 11.6093,10.1691 11.8293,10.3351 Z M5.71,6.2961 C5.75,6.3361 5.79,6.3861 5.83,6.4461 C5.87,6.4961 5.9,6.5561 5.92,6.6161 C5.95,6.6761 5.97,6.7361 5.98,6.8061 C5.99,6.8661 6,6.9361 6,6.9961 C6,7.2661 5.89,7.5161 5.71,7.7061 C5.61,7.7961 5.51,7.8761 5.38,7.9261 C5.26,7.9761 5.13,7.9961 5,7.9961 C4.74,7.9961 4.48,7.8961 4.29,7.7061 C4.2,7.6161 4.13,7.5061 4.08,7.3861 C4.03,7.2561 4,7.1261 4,6.9961 C4,6.9361 4.01,6.8661 4.02,6.8061 C4.03,6.7361 4.05,6.6761 4.08,6.6161 C4.1,6.5561 4.13,6.4961 4.17,6.4461 C4.21,6.3861 4.25,6.3361 4.29,6.2961 C4.67,5.9161 5.33,5.9161 5.71,6.2961 Z M11.71,6.2961 C11.89,6.4761 12,6.7361 12,6.9961 C12,7.2661 11.89,7.5161 11.71,7.7061 C11.52,7.8961 11.26,7.9961 11,7.9961 C10.74,7.9961 10.48,7.8961 10.29,7.7061 C10.2,7.6161 10.13,7.5061 10.08,7.3861 C10.03,7.2561 10,7.1361 10,6.9961 C10,6.8661 10.03,6.7361 10.08,6.6161 C10.13,6.4961 10.2,6.3861 10.29,6.2961 C10.66,5.9161 11.33,5.9161 11.71,6.2961 Z M13.5,1 C13.776,1 14,1.224 14,1.5 L14,1.5 L14,3 L15.5,3 C15.776,3 16,3.224 16,3.5 C16,3.776 15.776,4 15.5,4 L15.5,4 L14,4 L14,5.5 C14,5.776 13.776,6 13.5,6 C13.224,6 13,5.776 13,5.5 L13,5.5 L13,4 L11.5,4 C11.224,4 11,3.776 11,3.5 C11,3.224 11.224,3 11.5,3 L11.5,3 L13,3 L13,1.5 C13,1.224 13.224,1 13.5,1 Z" id="fill"></path>
        </g>
    </g>
</svg>

<svg width="16" height="16" xmlns="http://www.w3.org/2000/svg"><path d="M8 0a7.95 7.95 0 013.174.655.5.5 0 11-.397.918A7.008 7.008 0 001 8c0 3.86 3.14 7 7 7a7.008 7.008 0 006.931-7.985.501.501 0 01.99-.14c.053.368.079.747.079 1.125 0 4.41-3.589 8-8 8s-8-3.59-8-8c0-4.411 3.589-8 8-8zm3.83 10.335c.22.166.264.48.1.701A4.876 4.876 0 018 13a4.875 4.875 0 01-3.93-1.964.5.5 0 01.8-.6A3.881 3.881 0 008 12c1.241 0 2.382-.57 3.13-1.565a.5.5 0 01.7-.1zM5.71 6.296c.04.04.08.09.12.15.04.05.07.11.09.17.03.06.05.12.06.19.01.06.02.13.02.19 0 .27-.11.52-.29.71-.1.09-.2.17-.33.22-.12.05-.25.07-.38.07-.26 0-.52-.1-.71-.29a.988.988 0 01-.21-.32c-.05-.13-.08-.26-.08-.39 0-.06.01-.13.02-.19.01-.07.03-.13.06-.19.02-.06.05-.12.09-.17.04-.06.08-.11.12-.15.38-.38 1.04-.38 1.42 0zm6 0c.18.18.29.44.29.7 0 .27-.11.52-.29.71-.19.19-.45.29-.71.29-.26 0-.52-.1-.71-.29a1.046 1.046 0 01-.29-.71c0-.13.03-.26.08-.38s.12-.23.21-.32c.37-.38 1.04-.38 1.42 0zM13.5 1a.5.5 0 01.5.5V3h1.5a.5.5 0 010 1H14v1.5a.5.5 0 01-1 0V4h-1.5a.5.5 0 010-1H13V1.5a.5.5 0 01.5-.5z" fill="#171B1F" fill-rule="evenodd"/></svg>
